img/features/bg-step-2.svg

<svg width="113" height="229" viewBox="0 0 113 229" fill="none" xmlns="http://www.w3.org/2000/svg">
<path d="M0.624532 229V207.72L58.3045 117.84C62.5979 111.12 66.5179 104.867 70.0645 99.08C73.7979 93.2933 76.7845 87.2267 79.0245 80.88C81.4512 74.3467 82.6645 66.88 82.6645 58.48C82.6645 48.0267 80.9845 39.8133 77.6245 33.84C74.2645 27.8667 68.3845 24.88 59.9845 24.88C52.8912 24.88 47.3845 26.84 43.4645 30.76C39.5445 34.68 36.8379 39.8133 35.3445 46.16C33.8512 52.5067 33.1045 59.32 33.1045 66.6V74.16H3.14453V66.32C3.14453 52.6933 4.91787 41.0267 8.46453 31.32C12.1979 21.4267 18.0779 13.7733 26.1045 8.35999C34.3179 2.94666 45.1445 0.239991 58.5845 0.239991C76.8779 0.239991 90.5045 5.46666 99.4645 15.92C108.425 26.1867 112.905 40.4667 112.905 58.76C112.905 68.4667 111.691 76.96 109.265 84.24C107.025 91.52 104.038 98.3333 100.305 104.68C96.5712 111.027 92.4645 117.56 87.9845 124.28L35.9045 203.8H107.585V229H0.624532Z" fill="#F2F2F2"/>
</svg>

<svg width="113" height="229" fill="none" xmlns="http://www.w3.org/2000/svg"><path d="M.625 229v-21.28l57.68-89.88a1195.01 1195.01 0 0011.76-18.76c3.733-5.787 6.72-11.853 8.96-18.2 2.426-6.533 3.64-14 3.64-22.4 0-10.453-1.68-18.667-5.04-24.64-3.36-5.973-9.24-8.96-17.64-8.96-7.094 0-12.6 1.96-16.52 5.88s-6.627 9.053-8.12 15.4c-1.494 6.347-2.24 13.16-2.24 20.44v7.56H3.145v-7.84c0-13.627 1.773-25.293 5.32-35 3.733-9.893 9.613-17.547 17.64-22.96C34.318 2.947 45.145.24 58.584.24c18.293 0 31.92 5.227 40.88 15.68 8.96 10.267 13.44 24.547 13.44 42.84 0 9.707-1.214 18.2-3.64 25.48-2.24 7.28-5.227 14.093-8.96 20.44-3.734 6.347-7.84 12.88-12.32 19.6l-52.08 79.52h71.68V229H.625z" fill="#F2F2F2"/></svg>
